X:1
T:See Me Fight
T:See Me Fight
T:Transcription by Laurissa Chan
T:Two Steps From Hell
C:Two Steps From Hell
%%score 1 { ( 2 5 ) | ( 3 4 ) }
L:1/8
Q:3/8=98
M:6/8
K:C
V:1 treble nm="Voice" snm="Vo."
V:2 treble nm="Piano" snm="Pno."
V:5 treble 
V:3 bass 
V:4 bass 
V:1
 z6 | z6 | z6 | z6 | z6 | z6 | z6 | z6 | z6 | z6 | z6 | z6 | z6 | z6 | z6 | z6 | z6 | z6 | z6 | %19
 z6 | z6 | z6 | z6 | z6 | z6 | z6 | z6 | z6 | z6 | z6 | z6 | z6 | z6 | z6 | z6 | z6 | z6 | z6 | %38
 z6 | z6 |"_I""^0:50" C6 |"_start" F6 |"_lea -" E6 |"_ving" B,6 |"_I'm" C6 |"_not" D6 | %46
"_brea -" E6 |"_thing to -" A,2 (B,2 C2) |"_night" C6- | C6- | C4"_This" C2 | %51
"_is         good -" E3 B,3 |"_bye" (CB, A,4-) | A,6- | A,6- | A,2"_And the" B,2 B,2 | %56
"_night's" C6 |"_still" F6 |"_shi -" E6 |"_ning" B,6 |"_Words" C6 |"_can't" D6 |"_find" E6 | %63
"_the   moon -" A,2 (B,2 C2) |"_light" C6- | C6- | C4"_Just" C2 |"_hold     me" E3 B,3 | %68
"_tight" (CB, A,4-) | A,6- | A,6 |"_You ran  away" C2 D2 CG- |[M:3/4]"^1:30" G2"_and  I'm" E2 D2 | %73
"_wondering     why" C2 D E2 E- | E4- E"_It's"C |"_like you   and I" E2 E2 CD- | %76
 D2"_kind of fell" D2 CD- | D2"_from the sky" E2 CD- | D6 |"_You  didn't    say" E2 D2 CB,- | %80
 B,2"_that you made" B,2 B,B,- | B,2"_me    alive" A,2 B,C- | C4- C"_But baby I don't wanna"C | %83
 EE DC CC |"_say" F6 |"_good -" (E4 DC) |"_bye" (D C2-) C3 |"_Nowhere  to hide" C2 D2 CG- | %88
 G2"_and no heart" E2 DC- |"_left   to cry" C2 D2 EE- | E6 |"_Tell   me   it   looks" E2 E2 CD- | %92
 D2"_just  the same" D2 CD- | D2"_in  your eyes" E2 CD- | D6 |"_I       am  the rain" E2 D2 CB,- | %96
 B,2"_on   the fi -" B,2 B,B,- | B,2"_re     tonight" A,2 B,C- | C6 |"_Hoping  you'll" E2 D2 C2 | %100
"_see" F6 |"_me" (E4 DC) |"_fight" (D C2- C3) | z6 | z6 | z6 | z6 | z6 | z6 | z6 | z6 | z6 | %112
[M:6/8]"_Where""^2:19" C6 |"_did" F6 |"_we" E6 |"_go" B,6 |"_wrong" C6 |"_Did" D6 |"_we" E6 | %119
"_call  it" A,2 (B,2 C2) |"_quits" C6- | C6- | C4"_What" C2 |"_did      we" E3 B,3 | %124
"_miss" (CB, A,4-) | A,6- | A,6- | A,2"_Baby" B,2 B,2 |"_I" C6 |"_could" F6 |"_search" E6 | %131
"_a" B,6 |"_life -" C6 |"_time" D6 |"_ne -" E6 |"_ver   to" A,2 (B,2 C2) |"_find" C6- | C6- | %138
 C2 C2"_Someone" C2 |"_like      your" E3 B,3 |"_kind" (CB, A,4-) | A,6- | A,6 | %143
"_You ran  away" C2 D2 CG- |[M:3/4]"^2:58" G2"_and  I'm" E2 D2 |"_wondering    why" C2 D E2 E- | %146
 E4- E"_It's"C |"_like   you    and I" E2 E2 CD- | D2"_kind   of fell" D2 CD- | %149
 D2"_from the sky" E2 CD- | D6 |"_You   didn't      say" E2 D2 CB,- | %152
 B,2"_that  you made" B,2 B,B,- | B,2"_me     alive" A,2 B,C- | %154
 C4- C"_But    baby   I don't wanna"C | EE DC CC |"_say" F6 |"_good -" (E4 DC) |"_bye" (D C2-) C3 | %159
"_Nowhere      to hide" C2 D2 CG- | G2"_and    no  heart" E2 DC- |"_left     to  cry" C2 D2 EE- | %162
 E6 |"_Tell     me     it   looks" E2 E2 CD- | D2"_just   the same" D2 CD- | %165
 D2"_in    your eyes" E2 CD- | D6 |"_I       am    the rain" E2 D2 CB,- | %168
 B,2"_on      the fi -" B,2 B,B,- | B,2"_re       tonight" A,2 B,C- | C6 | %171
"_Hoping     you'll" E2 D2 C2 |"_see" F6 |"_me" G6 |"_fight" (A6- | A6 | G6- | G6) | z6 | z6 | z6 | %181
 z6 | z6 | z6 | z6 | z6 | z6 | z6 | z6 | z6 | z6 | z6 | z6 | z6 | z6 | z6 | z6 | z6 | z6 | z6 | %200
 z6 | z6 | z6 | z6 | z6 | z6 | z6 | z6 | z6 | z6 | z6 | z6 | z6 | z6 | z6 | z6 | z6 | z6 | z6 | %219
 z6 | z6 | z6 | z6 | z6 | z6 | z6 | z6 | z6 | z6 | z6 | z6 | z6 | z6 | z6 | z6 | z6 | z6 | z6 | %238
 z6 | z6 | z6 | z6 | z6 | z6 | z6 | z6 | z6 | z6 | z6 | z6 | z6 | z6 | z6 | z6 | z6 | z6 | z6 | %257
 z z z4 |] %258
V:2
!p! CGc CGc | CGc CGc | CGc CGc | CGc CGc | CGc [Cc]Gc | [Cc]Gc [Cc]Gc | [Cc]Gc [Cc]Gc | %7
 [Cc]Gc [Cc]Gc | [Cc]Gc [Cc]Gc | [Cc]Gc [Cc]Gc | [Cc]Gc [Cc]Gc | [Cc]Gc [Cc]Gc | [A,C]Gc [Cc]Gc | %13
 [Cc]Gc [Cc]Gc | [Cc]Gc [Cc]Gc | [Cc]Gc [Cc]Gc | [Cc]Gc [Cc]Gc | [Cc]Gc [Cc]Gc | [Cc]Gc [Cc]Gd | %19
 [Cc]Gd [Cc]Gd | [Cc]Gc [Cc]Gc | [Cc]Gc [Cc]Gc | [Cc]GB [Cc]GB | [Cc]GB [Cc]GB | [Cc]Gc [Cc]Gc | %25
 [Cc]Gc [Cc]Gc | [Cc]Gc [Cc]Gc | [Cc]Gf [Cc]Gf | [A,C]Ge [Cc]Ge | [Cc]Ge [Cc]Ge | [Cc]Gc [Cc]Gc | %31
 [Cc]Gd [Cc]Gd |!>(! CGc CGc | CGc CGc | CGc CGc | CGc CGc!>)! | CGc CGc | CGc CGc | CGc CGc | %39
!<(! CGc CGc!<)! |!mp! CGc CGc | CGc CGc | CGc CGc | CGc CGc | CGc [Cc]Gc | [Cc]Gc [Cc]Gc | %46
 [Cc]Gc [Cc]Gc | [Cc]Gc [Cc]Gc | [Cc]Gc [Cc]Gc | [Cc]Gc [Cc]Gc | [Cc]Gc [Cc]Gc | [Cc]Gc [Cc]Gc | %52
 [Cc]Gc [Cc]Gc | [Cc]Gc [Cc]Gc | [Cc]Gc [Cc]Gc | [Cc]Gc [Cc]Gc | [Cc]Gc [Cc]Gc | [Cc]Gc [Cc]Gc | %58
 [Cc]Gc [Cc]Gd | [Cc]Gd [Cc]Gd | [Cc]Gc [Cc]Gc | [Cc]Gc [Cc]Gc | [Cc]GB [Cc]GB | [Cc]GB [Cc]GB | %64
 [Cc]Gc [Cc]Gc | [Cc]Gc [Cc]Gc | [Cc]Gc [Cc]Gc | [Cc]Gf [Cc]Gf | [Cc]Ge [Cc]Ge | [Cc]Ge [Cc]Ge | %70
 [Cc]Gc [Cc]Gc | [Cc]Gc [Cc]Gc |[M:3/4] CG cc GE | CG cc GE | CG cc GE | CG cc GE | GB BG BG | %77
 GB BG BG | GB BG BG | Gd gd dB | A,E Ac AE | A,E Ac AE | A,E Ac AE | A,E Ac AE | CF Ac AF | %85
 CF Ac AF | FF GF FE | FF GF FE | CG cc GE | CG cc GE | CG cc GE | CG cc GE | GB BG BG | GB BG BG | %94
 GB BG BG | Gd gd dB | A,E Ac AE | A,E Ac AE | A,E Ac AE | A,E Ac AE | CF Ac AF | CF Ac AF | %102
 FF GF FE |!>(! FF GF FE!>)! |"^2:09"!p! B,C B,C B,C | B,C B,C B,C | A,2 A,2 A,2 | A,2 A,2 A,2 | %108
 Bc Bc Bc | Bc Bc Bc |!<(! de de de | de de de!<)! |[M:6/8]!mp! [Cc]Gc [Cc]Gc | [Cc]Gc [Cc]Gc | %114
 [Cc]Gc [Cc]Gc | [Cc]Gc [Cc]Gc | [Cc]Gc [Cc]Gc | [Cc]Gc [Cc]Gc | [Cc]Gc [Cc]Gc | [Cc]Gc [Cc]Gc | %120
 [Cc]Gc [Cc]Gc | [Cc]Gc [Cc]Gc | [Cc]Gc [Cc]Gc | [Cc]Gc [Cc]Gc | [Cc]Gc [Cc]Gc | [Cc]Gc [Cc]Gc | %126
 [Cc]Gc [Cc]Gc | [Cc]Gc [Cc]Gc | [Cc]Gc [Cc]Gc | [Cc]Gc [Cc]Gc | [Cc]Gc [Cc]Gd | [Cc]Gd [Cc]Gd | %132
 [Cc]Gc [Cc]Gc | [Cc]Gc [Cc]Gc | [Cc]GB [Cc]GB | [Cc]GB [Cc]GB | [Cc]Gc [Cc]Gc | [Cc]Gc [Cc]Gc | %138
 [Cc]Gc [Cc]Gc | [Cc]Gf [Cc]Gf | [Cc]Ge [Cc]Ge | [Cc]Ge [Cc]Ge | [Cc]Gc [Cc]Gc | [Cc]Gc [Cc]Gc | %144
[M:3/4] CG cc GE | CG cc GE | CG cc GE | CG cc GE | GB BG BG | GB BG BG | GB BG BG | Gd gd dB | %152
 A,E Ac AE | A,E Ac AE | A,E Ac AE | A,E Ac AE | CF Ac AF | CF Ac AF | FF GF FE | FF GF FE | %160
 CG [Cc]c [CG]E | CG [Cc]c [CG]E | CG [Cc]c [CG]E | CG [Cc]c [CG]E | [DG]B [DB]G [DB]G | %165
 [DG]B [DB]G [DB]G | [DG]B [DB]G [DB]G | [DG]d [Gg]d [Dd]B | [A,A]E [A,A]c [A,A]E | %169
 [A,A]E [A,A]c [A,A]E | [A,A]E [A,A]c [A,A]E | [A,A]E [A,A]c [A,A]E | [CFc]F [CA]c [CA]F | %173
 [CGc]F [CA]c [CA]F | [CFA]F [CG]F [CF]E | [CFB]F [CG]F [CF]E | [CGc]6 |!<(! [Fcf]6!<)! | %178
"^3:40"!f!!f!"^3:40" [FGf]6 | [EGe]6 | [DGd]6 | [CGc]6 | [B,DGB]6 | [A,DA]6 | [B,DGB]6 | [CDGc]6 | %186
 [CEAc]6 | [B,EB]6 | [A,EA]6 | [G,CEG]6 | [A,CFA]6 | [G,CG]6 | [A,F]6- | [A,F]6 | [Gf]6 | [Ge]6 | %196
 [Gd]6 | [Gc]6 | [DGB]6 | [DA]6 | [DB]6 | [DGc]6 | [EAc]6 | [EB]6 | [EA]6 | [CEG]6 | A6 | G6 | F6 | %209
 G6 |"^4:20" f2 f2 f2 | e2 e2 e2 | cG cG cG | cG cG cG | BG BG BG | BG BG BG | cG cG cG | %217
 dG dG dG | cG cG cG | cG cG cG | cG cG cG | BG BG BG | cG cG cG | dG dG dG | eG eG eG | fG fG fG | %226
 gG gG gG | gG gG gG | fG fG fG | eG eG eG | dG dG dG | dG dG dG | dG dG ad | ad ad ad | gG gG gG | %235
 gG fG fG | eG eG eG | dG dG dG | fG fG fG | eG eG eG | dG dG dG | cG cG cG | %242
"^5:00"!mf!!>(! [Cc]G cC Gc!>)! |!mp! CG cC Gc | CG cC Gc | CG cC Gc |!>(! CG cC Gc | %247
 CG cC Gc!>)! |!p! CG cC Gc | CG cC Gc | CG cC Gc | CG cC Gc | CG cC Gc |!>(! CG cC Gc | CG cC Gc | %255
 CG cC Gc!>)! |!ppp! C6- | C6 |] %258
V:3
!ped! [C,E,]6- | [C,E,]6- | [C,E,]6- | [C,E,]6!ped-up! |!ped! [G,,B,,]6- | [G,,B,,]6- | [G,,B,,]6 | %7
 [F,,A,,]2 [G,,B,,]4!ped-up! |!ped! [A,,C,]6- | [A,,C,]6- | [A,,C,]6- | [A,,C,]6!ped-up! | %12
!ped! [F,,F,]6- | [F,,F,]6- | [F,,F,]6- | [F,,F,]6!ped-up! |!ped! [C,E,]6- | [C,E,]6- | [C,E,]6- | %19
 [C,E,]6!ped-up! |!ped! [G,,B,,]6- | [G,,B,,]6- | [G,,B,,]6 | [F,,A,,]2 [G,,B,,]4!ped-up! | %24
!ped! [A,,C,]6- | [A,,C,]6- | [A,,C,]6- | [A,,C,]6!ped-up! |!ped! [F,,F,]6- | [F,,F,]6- | %30
 [F,,F,]6- | [F,,F,]6!ped-up! |!ped! [C,E,]6- | [C,E,]6- | [C,E,]6- | [C,E,]6- | [C,E,]6- | %37
 [C,E,]6- | [C,E,]6- | [C,E,]6!ped-up! |!ped! C,,G,,C, E,C,E, | C,,G,,C, E,C,E, | C,,G,,C, E,C,E, | %43
 C,,G,,C, E,C,E,!ped-up! |!ped! G,,B,,G,, G,D,B,, | G,,B,,G,, G,D,B,, | G,,B,,G,, G,D,B,, | %47
 G,,D,G,, D,G,,B,,!ped-up! |!ped! A,,C,E, A,E,C, | A,,C,E, A,E,C, | A,,C,E, A,E,C, | %51
 A,,C,E, A,E,C,!ped-up! |!ped! F,,C,F, A,F,C, | F,,C,F, A,F,C, | F,,C,F, A,F,C, | %55
 F,,C,A,, F,C,A,,!ped-up! |!ped! C,,G,,C, E,C,E, | C,,G,,C, E,C,E, | C,,G,,C, E,C,E, | %59
 C,,G,,C, E,C,E,!ped-up! |!ped! G,,B,,G,, G,D,B,, | G,,B,,G,, G,D,B,, | G,,B,,G,, G,D,B,, | %63
 G,,D,G,, D,G,,B,,!ped-up! |!ped! A,,C,E, A,E,C, | A,,C,E, A,E,C, | A,,C,E, A,E,C, | %67
 A,,C,E, A,E,C,!ped-up! |!ped! F,,C,F, A,F,C, | F,,C,F, A,F,C, | F,,C,F, A,F,C, | %71
 F,,C,A,, F,C,A,,!ped-up! |[M:3/4]!ped! [C,E,G,]2 [C,E,G,]2 [C,E,G,]2 | %73
 [C,E,G,]2 [C,E,G,]2 [C,E,G,]2 | [C,E,G,]2 [C,E,G,]2 [C,E,G,]2 | %75
 [C,E,G,]2 [C,E,G,]2 [C,E,G,]2!ped-up! |!ped! [B,,D,G,]2 [B,,D,G,]2 [B,,D,G,]2 | %77
 [B,,D,G,]2 [B,,D,G,]2 [B,,D,G,]2 | [B,,D,G,]2 [B,,D,G,]2 [B,,D,G,]2 | %79
 [F,,A,,C,]2 [G,,B,,D,]2 [G,,B,,D,]2!ped-up! |!ped! [A,,C,E,]2 [A,,C,E,]2 [A,,C,E,]2 | %81
 [A,,C,E,]2 [A,,C,E,]2 [A,,C,E,]2 | [A,,C,E,]2 [A,,C,E,]2 [A,,C,E,]2 | %83
 [A,,C,E,]2 [A,,C,E,]2 [A,,C,E,]2!ped-up! |!ped! [C,F,A,]2 [C,F,A,]2 [C,F,A,]2 | %85
 [C,F,A,]2 [C,F,A,]2 [C,F,A,]2 | [C,F,A,]2 [C,F,A,]2 [C,F,A,]2 | %87
 [A,,C,F,]2 [A,,C,F,]2 [A,,C,F,]2!ped-up! |!ped! [C,E,G,]2 [C,E,G,]2 [C,E,G,]2 | %89
 [C,E,G,]2 [C,E,G,]2 [C,E,G,]2 | [C,E,G,]2 [C,E,G,]2 [C,E,G,]2 | %91
 [C,E,G,]2 [C,E,G,]2 [C,E,G,]2!ped-up! |!ped! [B,,D,G,]2 [B,,D,G,]2 [B,,D,G,]2 | %93
 [B,,D,G,]2 [B,,D,G,]2 [B,,D,G,]2 | [B,,D,G,]2 [B,,D,G,]2 [B,,D,G,]2 | %95
 [F,,A,,C,]2 [G,,B,,D,]2 [G,,B,,D,]2!ped-up! |!ped! [A,,C,E,]2 [A,,C,E,]2 [A,,C,E,]2 | %97
 [A,,C,E,]2 [A,,C,E,]2 [A,,C,E,]2 | [A,,C,E,]2 [A,,C,E,]2 [A,,C,E,]2 | %99
 [A,,C,E,]2 [A,,C,E,]2 [A,,C,E,]2!ped-up! |!ped! [C,F,A,]2 [C,F,A,]2 [C,F,A,]2 | %101
 [C,F,A,]2 [C,F,A,]2 [C,F,A,]2 | [C,F,A,]2 [C,F,A,]2 [C,F,A,]2 | %103
 [C,F,A,]2 [C,F,A,]2 [C,F,A,]2!ped-up! |!ped! [C,E,G,]2 G, [C,E,G,C]2 G, | %105
 [C,E,G,]2 G, [C,E,G,C]2 G,!ped-up! |!ped! [A,,C,E,]2 A,, [A,,C,E,]2 A,, | %107
 [A,,C,E,]2 A,, [A,,C,E,]2 A,,!ped-up! |!ped! [C,E,G,]2 G, [C,E,G,C]2 G, | %109
 [C,E,G,]2 G, [C,E,G,C]2 G,!ped-up! |!ped! [C,E,A,]2 A, [C,E,A,]2 A, | %111
 [C,E,A,]2 [C,E,A,]2 F,/G,/A,/B,/!ped-up! |[M:6/8]!ped! [C,,C,]G,,C, [G,,E,]C,E,!ped-up! | %113
 [C,,C,]G,,C, [G,,E,]C,E, | [C,,C,]G,,C, [G,,E,]C,E, | [C,,C,]G,,C, [G,,E,]C,E, | %116
!ped! [G,,,G,,]B,,G,, [G,,G,]D,B,,!ped-up! | [G,,,G,,]B,,G,, [G,,G,]D,B,, | %118
 [G,,,G,,]B,,G,, [G,,G,]D,B,, | [G,,,G,,]D,G,, [D,,D,]G,,B,, | %120
!ped! [A,,,A,,]C,E, [A,,A,]E,C,!ped-up! | [A,,,A,,]C,E, [A,,A,]E,C, | [A,,,A,,]C,E, [A,,A,]E,C, | %123
 [A,,,A,,]C,E, [A,,A,]E,C, |!ped! [F,,F,]C,F, [A,,A,]F,C,!ped-up! | [F,,F,]C,F, [A,,A,]F,C, | %126
 [F,,F,]C,F, [A,,A,]F,C, | [F,,F,]C,A,, [F,,F,]C,A,, |!ped! [C,,C,]G,,C, [G,,E,]C,E,!ped-up! | %129
 [C,,C,]G,,C, [G,,E,]C,E, | [C,,C,]G,,C, [G,,E,]C,E, | [C,,C,]G,,C, [G,,E,]C,E, | %132
!ped! [G,,,G,,]B,,G,, [G,,G,]D,B,,!ped-up! | [G,,,G,,]B,,G,, [G,,G,]D,B,, | %134
 [G,,,G,,]B,,G,, [G,,G,]D,B,, | [G,,,G,,]D,G,, [D,,D,]G,,B,, | %136
!ped! [A,,,A,,]C,E, [A,,A,]E,C,!ped-up! | [A,,,A,,]C,E, [A,,A,]E,C, | [A,,,A,,]C,E, [A,,A,]E,C, | %139
 [A,,,A,,]C,E, [A,,A,]E,C, |!ped! [F,,F,]C,F, [A,,A,]F,C,!ped-up! | [F,,F,]C,F, [A,,A,]F,C, | %142
 [F,,F,]C,F, [A,,A,]F,C, | [F,,F,]C,A,, [F,,F,]C,A,, | %144
[M:3/4]!ped! [C,E,G,] [C,E,G,]2 [C,E,G,]2 [C,E,G,]!ped-up! | %145
 [C,E,G,] [C,E,G,]2 [C,E,G,]2 [C,E,G,] | [C,E,G,] [C,E,G,]2 [C,E,G,]2 [C,E,G,] | %147
 [C,E,G,] [C,E,G,]2 [C,E,G,]2 [C,E,G,] |!ped! [B,,D,G,] [B,,D,G,]2 [B,,D,G,]2 [B,,D,G,]!ped-up! | %149
 [B,,D,G,] [B,,D,G,]2 [B,,D,G,]2 [B,,D,G,] | [B,,D,G,] [B,,D,G,]2 [B,,D,G,]2 [B,,D,G,] | %151
 [F,,A,,C,]2 [G,,B,,D,]2 [G,,B,,D,]2 |!ped! [A,,C,E,] [A,,C,E,]2 [A,,C,E,]2 [A,,C,E,]!ped-up! | %153
 [A,,C,E,] [A,,C,E,]2 [A,,C,E,]2 [A,,C,E,] | [A,,C,E,] [A,,C,E,]2 [A,,C,E,]2 [A,,C,E,] | %155
 [A,,C,E,] [A,,C,E,]2 [A,,C,E,]2 [A,,C,E,] |!ped! [C,F,A,] [C,F,A,]2 [C,F,A,]2 [C,F,A,]!ped-up! | %157
 [C,F,A,] [C,F,A,]2 [C,F,A,]2 [C,F,A,] | [C,F,A,] [C,F,A,]2 [C,F,A,]2 [C,F,A,] | %159
 [A,,C,F,] [A,,C,F,]2 [A,,C,F,]2 [A,,C,F,] |!ped! [C,E,G,] [C,E,G,]2 [C,E,G,]2 [C,E,G,]!ped-up! | %161
 [C,E,G,] [C,E,G,]2 [C,E,G,]2 [C,E,G,] | [C,E,G,] [C,E,G,]2 [C,E,G,]2 [C,E,G,] | %163
 [C,E,G,] [C,E,G,]2 [C,E,G,]2 [C,E,G,] |!ped! [B,,D,G,] [B,,D,G,]2 [B,,D,G,]2 [B,,D,G,]!ped-up! | %165
 [B,,D,G,] [B,,D,G,]2 [B,,D,G,]2 [B,,D,G,] | [B,,D,G,] [B,,D,G,]2 [B,,D,G,]2 [B,,D,G,] | %167
 [F,,A,,C,]2 [G,,B,,D,]2 [G,,B,,D,]2 |!ped! [A,,C,E,] [A,,C,E,]2 [A,,C,E,]2 [A,,C,E,]!ped-up! | %169
 [A,,C,E,] [A,,C,E,]2 [A,,C,E,]2 [A,,C,E,] | [A,,C,E,] [A,,C,E,]2 [A,,C,E,]2 [A,,C,E,] | %171
 [A,,C,E,] [A,,C,E,]2 [A,,C,E,]2 [A,,C,E,] |!ped! [C,F,A,] [C,F,A,]2 [C,F,A,]2 [C,F,A,]!ped-up! | %173
 [C,F,A,] [C,F,A,]2 [C,F,A,]2 [C,F,A,] | [C,F,A,] [C,F,A,]2 [C,F,A,]2 [C,F,A,] | %175
 [A,,C,F,] [A,,C,F,]2 [A,,C,F,]2 [A,,C,F,] | %176
!ped! [A,,C,F,] [A,,C,F,]2 [A,,C,F,]2 [A,,C,F,]!ped-up! | %177
 [A,,C,F,]2 [A,,C,F,][A,,C,F,] [A,,C,F,][A,,C,F,] |!ped! [C,,C,]G,, C,[G,,E,] C,E,!ped-up! | %179
 [C,,C,]G,, C,[G,,E,] C,E, | [C,,C,]G,, C,[G,,E,] C,E, | [C,,C,]G,, C,[G,,E,] C,E, | %182
!ped! [G,,,G,,]B,, G,,[G,,G,] D,B,,!ped-up! | [G,,,G,,]B,, G,,[G,,G,] D,B,, | %184
 [G,,,G,,]B,, G,,[G,,G,] D,B,, | [F,,A,,C,]2 [G,,B,,D,]B,, [G,,B,,D,]B,, | %186
!ped! [A,,,A,,]C, E,[A,,A,] E,C,!ped-up! | [A,,,A,,]C, E,[A,,A,] E,C, | %188
 [A,,,A,,]C, E,[A,,A,] E,C, | [A,,,A,,]C, E,[A,,A,] E,C, |!ped! [F,,F,]C, F,[A,,A,] F,C,!ped-up! | %191
 [F,,F,]C, F,[A,,A,] F,C, | [F,,F,]C, F,[A,,A,] F,C, | [F,,F,]C, A,,[F,,F,] C,A,, | %194
!ped! [C,,C,]G,, C,[G,,E,] C,E,!ped-up! | [C,,C,]G,, C,[G,,E,] C,E, | [C,,C,]G,, C,[G,,E,] C,E, | %197
 [C,,C,]G,, C,[G,,E,] C,E, |!ped! [G,,,G,,]B,, G,,[G,,G,] D,B,,!ped-up! | %199
 [G,,,G,,]B,, G,,[G,,G,] D,B,, | [G,,,G,,]B,, G,,[G,,G,] D,B,, | %201
 [F,,A,,C,]2 [G,,B,,D,]B,, [G,,B,,D,]B,, |!ped! [A,,,A,,]C, E,[A,,A,] E,C,!ped-up! | %203
 [A,,,A,,]C, E,[A,,A,] E,C, | [A,,,A,,]C, E,[A,,A,] E,C, | [A,,,A,,]C, E,[A,,A,] E,C, | %206
!ped! [F,,F,]C, F,[A,,A,] F,C,!ped-up! | [F,,F,]C, F,[A,,A,] F,C, | [F,,F,]C, F,[A,,A,] F,C, | %209
 [F,,F,]A,, C,F, A,C |!ped! [C,,C,]G,, C,[G,,E,] C,E,!ped-up! | [C,,C,]G,, C,[G,,E,] C,E, | %212
 [C,,C,]G,, C,[G,,E,] C,E, | [C,,C,]G,, C,[G,,E,] C,E, | %214
!ped! [G,,,G,,]B,, G,,[G,,G,] D,B,,!ped-up! | [G,,,G,,]B,, G,,[G,,G,] D,B,, | %216
 [G,,,G,,]B,, G,,[G,,G,] D,B,, | [F,,A,,C,]2 [G,,B,,D,]B,, [G,,B,,D,]B,, | %218
!ped! [A,,,A,,]C, E,[A,,A,] E,C,!ped-up! | [A,,,A,,]C, E,[A,,A,] E,C, | %220
 [A,,,A,,]C, E,[A,,A,] E,C, | [A,,,A,,]C, E,[A,,A,] E,C, |!ped! [F,,F,]C, F,[A,,A,] F,C,!ped-up! | %223
 [F,,F,]C, F,[A,,A,] F,C, | [F,,F,]C, F,[A,,A,] F,C, | [F,,F,]C, A,,[F,,F,] C,A,, | %226
!ped! [C,,C,]G,, C,[G,,E,] C,E,!ped-up! | [C,,C,]G,, C,[G,,E,] C,E, | [C,,C,]G,, C,[G,,E,] C,E, | %229
 [C,,C,]G,, C,[G,,E,] C,E, |!ped! [G,,,G,,]B,, G,,[G,,G,] D,B,,!ped-up! | %231
 [G,,,G,,]B,, G,,[G,,G,] D,B,, | [G,,,G,,]B,, G,,[G,,G,] D,B,, | [G,,,G,,]D, G,,[D,,D,] G,,B,, | %234
!ped! [A,,,A,,]C, E,[A,,A,] E,C,!ped-up! | [A,,,A,,]C, E,[A,,A,] E,C, | %236
 [A,,,A,,]C, E,[A,,A,] E,C, | [A,,,A,,]C, E,[A,,A,] E,C, |!ped! [F,,F,]C, F,[A,,A,] F,C,!ped-up! | %239
 [F,,F,]C, F,[A,,A,] F,C, | [F,,F,]C, F,[A,,A,] F,C, | [F,,F,]C, A,,[F,,F,] C,A,, | %242
"_Fade to end"!ped! [C,E,]6-!ped-up! | [C,E,]6 | [C,E,]2 [C,E,]2 [C,F,]2 | [C,G,]3 [C,F,] [C,E,]2 | %246
!ped! [G,,D,]6-!ped-up! | [G,,D,]6- | [G,,D,]3 B,, C,2 | [F,,A,,D,]2 [G,,B,,]C, B,,2 | %250
!ped! [A,,C,]6-!ped-up! | [A,,C,]6- | [A,,C,]3[K:treble] g a2 | b6 |!ped! c'6-!ped-up! | c'6- | %256
 c'6- | c'6 |] %258
V:4
 x6 | x6 | x6 | x6 | x6 | x6 | x6 | x6 | x6 | x6 | x6 | x6 | x6 | A,3 A,3 | A,3 A,3 | B,2 B,2 B,2 | %16
 x6 | x6 | x6 | x6 | x6 | x6 | x6 | x6 | x6 | x6 | x6 | x6 | x3 A,3 | A,3 A,3 | A,3 A,3 | A,3 A,3 | %32
 x6 | x6 | x6 | x6 | x6 | x6 | x6 | x6 | x6 | x6 | x6 | x6 | x6 | x6 | x6 | x6 | x6 | x6 | x6 | %51
 x6 | x6 | x6 | x6 | x6 | x6 | x6 | x6 | x6 | x6 | x6 | x6 | x6 | x6 | x6 | x6 | x6 | x6 | x6 | %70
 x6 | x6 |[M:3/4] x6 | x6 | x6 | x6 | x6 | x6 | x6 | x6 | x6 | x6 | x6 | x6 | x6 | x6 | x6 | x6 | %88
 x6 | x6 | x6 | x6 | x6 | x6 | x6 | x6 | x6 | x6 | x6 | x6 | x6 | x6 | x6 | x6 | x6 | x6 | x6 | %107
 x6 | x6 | x6 | x6 | x6 |[M:6/8] x6 | x6 | x6 | x6 | x6 | x6 | x6 | x6 | x6 | x6 | x6 | x6 | x6 | %125
 x6 | x6 | x6 | x6 | x6 | x6 | x6 | x6 | x6 | x6 | x6 | x6 | x6 | x6 | x6 | x6 | x6 | x6 | x6 | %144
[M:3/4] x6 | x6 | x6 | x6 | x6 | x6 | x6 | x6 | x6 | x6 | x6 | x6 | x6 | x6 | x6 | x6 | x6 | x6 | %162
 x6 | x6 | x6 | x6 | x6 | x6 | x6 | x6 | x6 | x6 | x6 | x6 | x6 | x6 | x6 | x6 | x6 | x6 | x6 | %181
 x6 | x6 | x6 | x6 | x6 | x6 | x6 | x6 | x6 | x6 | x6 | x6 | x6 | x6 | x6 | x6 | x6 | x6 | x6 | %200
 x6 | x6 | x6 | x6 | x6 | x6 | x6 | x6 | x6 | x6 | x6 | x6 | x6 | x6 | x6 | x6 | x6 | x6 | x6 | %219
 x6 | x6 | x6 | x6 | x6 | x6 | x6 | x6 | x6 | x6 | x6 | x6 | x6 | x6 | x6 | x6 | x6 | x6 | x6 | %238
 x6 | x6 | x6 | x6 | x6 | x6 | x6 | x6 | x6 | x6 | x6 | x6 | x6 | x6 | x3[K:treble] x3 | x6 | x6 | %255
 x6 | x6 | x6 |] %258
V:5
 x6 | x6 | x6 | x6 | x6 | x6 | x6 | x6 | x6 | x6 | x6 | x6 | x6 | x6 | x6 | x6 | x6 | x6 | x6 | %19
 x6 | x6 | x6 | x6 | x6 | x6 | x6 | x6 | x6 | x6 | x6 | x6 | x6 | x6 | x6 | x6 | x6 | x6 | x6 | %38
 x6 | x6 | x6 | x6 | x6 | x6 | x6 | x6 | x6 | x6 | x6 | x6 | x6 | x6 | x6 | x6 | x6 | x6 | x6 | %57
 x6 | x6 | x6 | x6 | x6 | x6 | x6 | x6 | x6 | x6 | x6 | x6 | x6 | x6 | x6 |[M:3/4] x6 | x6 | x6 | %75
 x6 | x6 | x6 | x6 | x6 | x6 | x6 | x6 | x6 | x6 | x6 | x6 | x6 | x6 | x6 | x6 | x6 | x6 | x6 | %94
 x6 | x6 | x6 | x6 | x6 | x6 | x6 | x6 | x6 | x6 | x6 | x6 | x6 | x6 | x6 | x6 | x6 | x6 | %112
[M:6/8] x6 | x6 | x6 | x6 | x6 | x6 | x6 | x6 | x6 | x6 | x6 | x6 | x6 | x6 | x6 | x6 | x6 | x6 | %130
 x6 | x6 | x6 | x6 | x6 | x6 | x6 | x6 | x6 | x6 | x6 | x6 | x6 | x6 |[M:3/4] x6 | x6 | x6 | x6 | %148
 x6 | x6 | x6 | x6 | x6 | x6 | x6 | x6 | x6 | x6 | x6 | x6 | x6 | x6 | x6 | x6 | x6 | x6 | x6 | %167
 x6 | x6 | x6 | x6 | x6 | x6 | x6 | x6 | x6 | x6 | x6 | x6 | x6 | x6 | x6 | x6 | x6 | x6 | x6 | %186
 x6 | x6 | x6 | x6 | x6 | x6 | x6 | x6 | F2 F2 F2 | E2 E2 E2 | D2 D2 D2 | C2 C2 C2 | B,2 B,2 B,2 | %199
 A,2 A,2 A,2 | B,2 B,2 B,2 | C2 C2 C2 | C2 C2 C2 | B,2 B,2 B,2 | A,2 A,2 A,2 | G,2 G,2 G,2 | %206
 A,2 A,2 A,2 | G,2 G,2 G,2 | x6 | x6 | x6 | x6 | x6 | x6 | x6 | x6 | x6 | x6 | x6 | x6 | x6 | x6 | %222
 x6 | x6 | x6 | x6 | x6 | x6 | x6 | x6 | x6 | x6 | x6 | x6 | x6 | x6 | x6 | x6 | x6 | x6 | x6 | %241
 x6 | x6 | x6 | x6 | x6 | x6 | x6 | x6 | x6 | x6 | x6 | x6 | x6 | x6 | x6 | x6 | x6 |] %258

